X: 36
T: John O'Dwyer of the Glen - 2nd Setting
R: air
%S: s:2 b:16(6+6)
B: O'Neill's 1850 #36
O: F.O'Neill
Z: Norbert Paap, norbertp@bdu.uva.nl
Q: "Slow with expression"
M: 3/4
L: 1/8
K: G
(d/c/) \
| (B>A) (B>d) (c<A) | ({F}G>F) (GA) (B<G) \
| (BG) (AG) (FD) | (C>D) !p!G>G G :| D \
| GG (G/A/B/c/) dd | e>f e>d ed |
| cd (d/c/B/A/) (B/A/G/F/) | ({A}G>F) DD D (d/c/) \
| B>A Bd (c<A) | ({F}G>F) (GA) (B<G) \
| (B>G) (A>G) (F<D) | CD G>G G |]
